X: 5
T: The New Custom House
R: reel
M: 4/4
L: 1/8
K: Dmix
AD (3FED =FGAB | cAGE CEGc | ADFD =FGAB | c2 ec dcAG |AD (3FED =FGAB | cAGE CEGc | ADFD =FGAB | cAGE ED D2 :|Ad d2 Adfd | ec c2 ef g2 | Ad d2 Adfa | gfec fdec |Ad d2 Adfd | ec c2 efgf | afge d (3ABc d | eaag ed d2 :|


Tune 175	Setting 175

